svgs/fairemail.svg

<?xml version="1.0" encoding="UTF-8" standalone="no"?><svg xmlns:android="http://schemas.android.com/apk/res/android" height="192" width="192" xmlns="http://www.w3.org/2000/svg">
  <path d="M22,46C22,41.582 25.582,38 30,38H162C166.418,38 170,41.582 170,46V146C170,150.418 166.418,154 162,154H30C25.582,154 22,150.418 22,146V46Z" fill="#000000" fill-opacity="0.0" stroke="#000000" stroke-width="12"/>
  <path d="M44,60L96,104L148,60" fill="#000000" fill-opacity="0.0" stroke="#000000" stroke-linecap="round" stroke-linejoin="round" stroke-width="12"/>
</svg>

<svg width="192" height="192" viewBox="0 0 192 192" fill="none" xmlns="http://www.w3.org/2000/svg"><path d="M22 46a8 8 0 0 1 8-8h132a8 8 0 0 1 8 8v100a8 8 0 0 1-8 8H30a8 8 0 0 1-8-8V46Z" stroke="#000" stroke-width="12"/><path d="m44 60 52 44 52-44" stroke="#000" stroke-width="12" stroke-linecap="round" stroke-linejoin="round"/></svg>
